src/images/VectorAppView.svg

<svg width="391" height="391" viewBox="0 0 391 391" fill="none" xmlns="http://www.w3.org/2000/svg">
<path d="M195.5 0.0127614H12.2379C5.47451 0.0127614 0 5.48727 0 12.2507V195.5C0 303.472 87.5284 391 195.5 391C303.472 391 391 303.472 391 195.5C391 87.5284 303.472 0 195.5 0V0.0127614ZM142.746 279.213C114.863 264.065 97.75 234.626 97.75 202.889V109.988C97.75 103.225 103.225 97.75 109.988 97.75H202.876C234.6 97.75 264.053 114.863 279.2 142.746C329.543 235.378 235.378 329.543 142.746 279.2V279.213Z" fill="white"/>
</svg>

<svg width="391" height="391" fill="none" xmlns="http://www.w3.org/2000/svg"><path d="M195.5.013H12.238C5.475.013 0 5.487 0 12.25V195.5C0 303.472 87.528 391 195.5 391S391 303.472 391 195.5 303.472 0 195.5 0v.013Zm-52.754 279.2c-27.883-15.148-44.996-44.587-44.996-76.324v-92.901c0-6.763 5.475-12.238 12.238-12.238h92.888c31.724 0 61.177 17.113 76.324 44.996 50.343 92.632-43.822 186.797-136.454 136.454v.013Z" fill="#fff"/></svg>
